images/advantages-icon-4.svg

<svg width="78" height="74" viewBox="0 0 78 74" fill="none" xmlns="http://www.w3.org/2000/svg">
<g clip-path="url(#clip0_52_9472)">
<path d="M21.4655 71.6116C21.3644 71.7536 21.2127 71.8473 21.0438 71.8721L32.0276 70.2578C31.8587 70.2826 31.6864 70.2365 31.5487 70.1296C31.411 70.0227 31.3191 69.8637 31.2932 69.6877L29.874 60.041C29.6184 58.3197 29.0259 56.6672 28.1332 55.1863C27.2406 53.7053 26.0669 52.4275 24.6851 51.4323L17.0753 45.9713C16.3294 45.4396 15.4406 45.1723 14.5427 45.2095C13.6448 45.2468 12.7863 45.5866 12.0965 46.1779C11.9825 46.2767 11.8897 46.3992 11.824 46.5378C11.7584 46.6763 11.7213 46.8279 11.7151 46.9829C11.7088 47.138 11.7337 47.293 11.7879 47.4383C11.8422 47.5836 11.9248 47.7159 12.0304 47.8269L20.5593 56.7862C20.6664 56.9159 20.7227 57.0824 20.7167 57.2521C20.7108 57.4219 20.643 57.5822 20.5272 57.7005C20.4114 57.8189 20.2562 57.8866 20.0929 57.8898C19.9296 57.893 19.7705 57.8315 19.6478 57.7179L11.1184 48.7639C10.8863 48.5201 10.7049 48.2294 10.5857 47.9102C10.4664 47.591 10.412 47.2503 10.4258 46.9098C10.4396 46.5692 10.5214 46.2362 10.666 45.9319C10.8105 45.6276 11.0147 45.3586 11.2655 45.1421C11.5823 44.8698 11.9284 44.6365 12.2972 44.4467L5.87399 29.3988C5.6994 28.9905 5.38608 28.6624 4.99478 28.4781C4.60348 28.2937 4.16208 28.2663 3.75616 28.4012C3.35025 28.536 3.00873 28.8234 2.79783 29.2078C2.58693 29.5921 2.52168 30.046 2.61472 30.4814L6.63277 49.2357C7.0766 51.3238 8.13564 53.2228 9.66147 54.6668L20.5339 64.9807C20.6468 65.0876 20.7201 65.2323 20.7406 65.3891L21.583 71.1149C21.6089 71.2909 21.5666 71.4696 21.4655 71.6116Z" fill="#E8B78A"/>
<g filter="url(#filter0_i_52_9472)">
<rect width="16.3783" height="4.96806" rx="2" transform="matrix(0.986394 -0.164398 0.164549 0.986369 17.3984 68.8138)" fill="#2D4BA1"/>
</g>
<path d="M56.5345 71.6116C56.6356 71.7536 56.7873 71.8473 56.9562 71.8721L45.9724 70.2578C46.1413 70.2826 46.3136 70.2365 46.4513 70.1296C46.589 70.0227 46.6809 69.8637 46.7068 69.6877L48.126 60.041C48.3816 58.3197 48.9741 56.6672 49.8668 55.1863C50.7594 53.7053 51.9331 52.4275 53.3149 51.4323L60.9247 45.9713C61.6706 45.4396 62.5594 45.1723 63.4573 45.2095C64.3552 45.2468 65.2137 45.5866 65.9035 46.1779C66.0175 46.2767 66.1103 46.3992 66.176 46.5378C66.2416 46.6763 66.2787 46.8279 66.2849 46.9829C66.2912 47.138 66.2663 47.293 66.2121 47.4383C66.1578 47.5836 66.0752 47.7159 65.9696 47.8269L57.4407 56.7862C57.3336 56.9159 57.2773 57.0824 57.2833 57.2521C57.2892 57.4219 57.357 57.5822 57.4728 57.7005C57.5886 57.8189 57.7438 57.8866 57.9071 57.8898C58.0704 57.893 58.2295 57.8315 58.3522 57.7179L66.8816 48.7639C67.1137 48.5201 67.2951 48.2294 67.4143 47.9102C67.5336 47.591 67.588 47.2503 67.5742 46.9098C67.5604 46.5692 67.4786 46.2362 67.334 45.9319C67.1895 45.6276 66.9853 45.3586 66.7345 45.1421C66.4177 44.8698 66.0716 44.6365 65.7028 44.4467L72.126 29.3988C72.3006 28.9905 72.6139 28.6624 73.0052 28.4781C73.3965 28.2937 73.8379 28.2663 74.2438 28.4012C74.6498 28.536 74.9913 28.8234 75.2022 29.2078C75.4131 29.5921 75.4783 30.046 75.3853 30.4814L71.3672 49.2357C70.9234 51.3238 69.8644 53.2228 68.3385 54.6668L57.4661 64.9807C57.3532 65.0876 57.2799 65.2323 57.2594 65.3891L56.417 71.1149C56.3911 71.2909 56.4334 71.4696 56.5345 71.6116Z" fill="#E8B78A"/>
<g filter="url(#filter1_i_52_9472)">
<rect width="16.3783" height="4.96806" rx="2" transform="matrix(-0.986394 -0.164398 -0.164549 0.986369 60.6016 68.8138)" fill="#2D4BA1"/>
</g>
<path d="M35.4562 50.0177C34.0489 50.0177 32.6992 49.459 31.7041 48.4643C30.709 47.4697 30.15 46.1206 30.15 44.714V42.9461C30.15 42.4772 30.3363 42.0275 30.668 41.696C30.9997 41.3645 31.4496 41.1782 31.9187 41.1782C32.3878 41.1782 32.8377 41.3645 33.1694 41.696C33.5011 42.0275 33.6875 42.4772 33.6875 42.9461V44.714C33.6875 45.1829 33.8738 45.6326 34.2055 45.9641C34.5372 46.2957 34.9871 46.4819 35.4562 46.4819C35.9253 46.4819 36.3752 46.2957 36.7069 45.9641C37.0386 45.6326 37.2249 45.1829 37.2249 44.714V23.4991C37.2249 23.0302 37.4113 22.5806 37.743 22.249C38.0747 21.9175 38.5246 21.7312 38.9937 21.7312C39.4628 21.7312 39.9127 21.9175 40.2444 22.249C40.5761 22.5806 40.7624 23.0302 40.7624 23.4991V44.714C40.7624 46.1206 40.2034 47.4697 39.2083 48.4643C38.2132 49.459 36.8635 50.0177 35.4562 50.0177Z" fill="#182A66"/>
<path d="M38.9936 9.35596C38.5245 9.35596 38.0746 9.1697 37.7429 8.83815C37.4112 8.5066 37.2249 8.05693 37.2249 7.58805V2.28433C37.2249 1.81545 37.4112 1.36577 37.7429 1.03423C38.0746 0.70268 38.5245 0.516418 38.9936 0.516418C39.4627 0.516418 39.9126 0.70268 40.2443 1.03423C40.576 1.36577 40.7623 1.81545 40.7623 2.28433V7.58805C40.7623 8.05693 40.576 8.5066 40.2443 8.83815C39.9126 9.1697 39.4627 9.35596 38.9936 9.35596Z" fill="#182A66"/>
<g filter="url(#filter2_i_52_9472)">
<path d="M38.9937 5.82001C32.8954 5.82001 27.0468 8.2414 22.7347 12.5515C18.4225 16.8616 16 22.7074 16 28.8028C16 29.2717 16.1863 29.7214 16.5181 30.0529C16.8498 30.3845 17.2996 30.5707 17.7687 30.5707H17.9987C18.4003 30.5834 18.7944 30.459 19.1159 30.218C19.4374 29.977 19.6672 29.6338 19.7674 29.2448C20.0672 28.1137 20.7328 27.1133 21.6605 26.3997C22.5883 25.686 23.7261 25.299 24.8968 25.299C26.0675 25.299 27.2053 25.686 28.1331 26.3997C29.0608 27.1133 29.7264 28.1137 30.0261 29.2448C30.1264 29.6338 30.3562 29.977 30.6777 30.218C30.9992 30.459 31.3932 30.5834 31.7949 30.5707H32.2548C32.6564 30.5834 33.0505 30.459 33.3719 30.218C33.6934 29.977 33.9232 29.6338 34.0235 29.2448C34.3232 28.1137 34.9888 27.1133 35.9166 26.3997C36.8443 25.686 37.9822 25.299 39.1529 25.299C40.3236 25.299 41.4614 25.686 42.3892 26.3997C43.3169 27.1133 43.9825 28.1137 44.2822 29.2448C44.3825 29.6338 44.6123 29.977 44.9338 30.218C45.2553 30.459 45.6493 30.5834 46.051 30.5707H46.5108C46.9125 30.5834 47.3065 30.459 47.628 30.218C47.9495 29.977 48.1793 29.6338 48.2796 29.2448C48.5793 28.1137 49.2449 27.1133 50.1727 26.3997C51.1004 25.686 52.2383 25.299 53.4089 25.299C54.5796 25.299 55.7175 25.686 56.6452 26.3997C57.573 27.1133 58.2386 28.1137 58.5383 29.2448C58.6386 29.6338 58.8684 29.977 59.1899 30.218C59.5114 30.459 59.9054 30.5834 60.3071 30.5707H60.2186C60.6877 30.5707 61.1376 30.3845 61.4693 30.0529C61.801 29.7214 61.9874 29.2717 61.9874 28.8028C61.9874 22.7074 59.5648 16.8616 55.2527 12.5515C50.9405 8.2414 45.092 5.82001 38.9937 5.82001Z" fill="#70CA74"/>
</g>
</g>
<defs>
<filter id="filter0_i_52_9472" x="17.7" y="66.4225" width="16.3699" height="6.99036" filterUnits="userSpaceOnUse" color-interpolation-filters="sRGB">
<feFlood flood-opacity="0" result="BackgroundImageFix"/>
<feBlend mode="normal" in="SourceGraphic" in2="BackgroundImageFix" result="shape"/>
<feColorMatrix in="SourceAlpha" type="matrix" values="0 0 0 0 0 0 0 0 0 0 0 0 0 0 0 0 0 0 127 0" result="hardAlpha"/>
<feOffset dx="-3" dy="-5"/>
<feComposite in2="hardAlpha" operator="arithmetic" k2="-1" k3="1"/>
<feColorMatrix type="matrix" values="0 0 0 0 0 0 0 0 0 0 0 0 0 0 0 0 0 0 0.25 0"/>
<feBlend mode="normal" in2="shape" result="effect1_innerShadow_52_9472"/>
</filter>
<filter id="filter1_i_52_9472" x="43.9302" y="66.4225" width="16.3699" height="6.99036" filterUnits="userSpaceOnUse" color-interpolation-filters="sRGB">
<feFlood flood-opacity="0" result="BackgroundImageFix"/>
<feBlend mode="normal" in="SourceGraphic" in2="BackgroundImageFix" result="shape"/>
<feColorMatrix in="SourceAlpha" type="matrix" values="0 0 0 0 0 0 0 0 0 0 0 0 0 0 0 0 0 0 127 0" result="hardAlpha"/>
<feOffset dx="5" dy="-4"/>
<feComposite in2="hardAlpha" operator="arithmetic" k2="-1" k3="1"/>
<feColorMatrix type="matrix" values="0 0 0 0 0 0 0 0 0 0 0 0 0 0 0 0 0 0 0.25 0"/>
<feBlend mode="normal" in2="shape" result="effect1_innerShadow_52_9472"/>
</filter>
<filter id="filter2_i_52_9472" x="16" y="5.82001" width="45.9874" height="24.7516" filterUnits="userSpaceOnUse" color-interpolation-filters="sRGB">
<feFlood flood-opacity="0" result="BackgroundImageFix"/>
<feBlend mode="normal" in="SourceGraphic" in2="BackgroundImageFix" result="shape"/>
<feColorMatrix in="SourceAlpha" type="matrix" values="0 0 0 0 0 0 0 0 0 0 0 0 0 0 0 0 0 0 127 0" result="hardAlpha"/>
<feOffset dy="2"/>
<feComposite in2="hardAlpha" operator="arithmetic" k2="-1" k3="1"/>
<feColorMatrix type="matrix" values="0 0 0 0 0.410278 0 0 0 0 0.615385 0 0 0 0 0.389349 0 0 0 1 0"/>
<feBlend mode="normal" in2="shape" result="effect1_innerShadow_52_9472"/>
</filter>
<clipPath id="clip0_52_9472">
<rect width="78" height="74" fill="white"/>
</clipPath>
</defs>
</svg>

<svg width="78" height="74" fill="none" xmlns="http://www.w3.org/2000/svg"><g clip-path="url(#clip0_52_9472)"><path d="M21.465 71.612a.63.63 0 01-.421.26l10.984-1.614a.63.63 0 01-.48-.128.686.686 0 01-.255-.442l-1.419-9.647a13.15 13.15 0 00-1.74-4.855 12.7 12.7 0 00-3.449-3.754l-7.61-5.46a4.071 4.071 0 00-2.532-.763 4.01 4.01 0 00-2.446.969 1.098 1.098 0 00-.273.36 1.147 1.147 0 00-.036.9c.054.146.137.278.242.389l8.53 8.96a.696.696 0 01.157.465.674.674 0 01-.19.448.624.624 0 01-.88.018l-8.529-8.954a2.513 2.513 0 01-.532-.854 2.546 2.546 0 01.08-1.978c.144-.304.349-.573.6-.79a5.312 5.312 0 011.031-.695L5.874 29.399a1.793 1.793 0 00-.88-.92 1.666 1.666 0 00-1.238-.078 1.712 1.712 0 00-.958.807 1.847 1.847 0 00-.183 1.273l4.018 18.755a10.477 10.477 0 003.028 5.43l10.873 10.315a.685.685 0 01.207.408l.842 5.726a.685.685 0 01-.117.497z" fill="#E8B78A"/><g filter="url(#filter0_i_52_9472)"><rect width="16.378" height="4.968" rx="2" transform="rotate(-9.462 424.432 -70.704) skewX(.009)" fill="#2D4BA1"/></g><path d="M56.535 71.612a.63.63 0 00.421.26l-10.984-1.614a.63.63 0 00.48-.128.686.686 0 00.255-.442l1.419-9.647a13.15 13.15 0 011.74-4.855 12.7 12.7 0 013.449-3.754l7.61-5.46a4.071 4.071 0 012.532-.763 4.01 4.01 0 012.446.969c.114.099.207.221.273.36a1.147 1.147 0 01.036.9 1.145 1.145 0 01-.242.389l-8.53 8.96a.695.695 0 00-.157.465c.006.17.074.33.19.448a.624.624 0 00.88.018l8.529-8.954a2.563 2.563 0 00.693-1.854 2.516 2.516 0 00-.241-.978 2.405 2.405 0 00-.6-.79 5.312 5.312 0 00-1.031-.695l6.423-15.048c.175-.409.488-.737.88-.92a1.666 1.666 0 011.238-.078c.406.135.747.422.958.807.211.384.276.838.183 1.273l-4.018 18.755a10.476 10.476 0 01-3.029 5.43L57.466 64.982a.685.685 0 00-.207.408l-.842 5.726a.685.685 0 00.117.497z" fill="#E8B78A"/><g filter="url(#filter1_i_52_9472)"><rect width="16.378" height="4.968" rx="2" transform="matrix(-.9864 -.1644 -.16455 .98637 60.602 68.814)" fill="#2D4BA1"/></g><path d="M35.456 50.018a5.307 5.307 0 01-5.306-5.304v-1.768a1.767 1.767 0 013.02-1.25c.331.332.517.781.517 1.25v1.768a1.767 1.767 0 003.02 1.25c.332-.331.518-.781.518-1.25V23.499a1.768 1.768 0 013.537 0v21.215a5.302 5.302 0 01-5.306 5.304zm3.538-40.662a1.77 1.77 0 01-1.77-1.768V2.284a1.767 1.767 0 013.02-1.25c.332.332.518.781.518 1.25v5.304a1.767 1.767 0 01-1.768 1.768z" fill="#182A66"/><g filter="url(#filter2_i_52_9472)"><path d="M38.994 5.82a23 23 0 00-16.26 6.732A22.977 22.977 0 0016 28.802a1.767 1.767 0 001.769 1.769h.23a1.77 1.77 0 001.768-1.326 5.304 5.304 0 015.13-3.946 5.308 5.308 0 015.13 3.946 1.768 1.768 0 001.768 1.326h.46a1.77 1.77 0 001.768-1.326 5.303 5.303 0 015.13-3.946 5.308 5.308 0 015.13 3.946 1.768 1.768 0 001.768 1.326h.46a1.77 1.77 0 001.769-1.326 5.303 5.303 0 015.129-3.946 5.308 5.308 0 015.13 3.946 1.768 1.768 0 001.768 1.326h-.088a1.769 1.769 0 001.768-1.768 22.978 22.978 0 00-6.734-16.252 23 23 0 00-16.26-6.731z" fill="#70CA74"/></g></g><defs><filter id="filter0_i_52_9472" x="17.7" y="66.422" width="16.37" height="6.99" filterUnits="userSpaceOnUse" color-interpolation-filters="sRGB"><feFlood flood-opacity="0" result="BackgroundImageFix"/><feBlend in="SourceGraphic" in2="BackgroundImageFix" result="shape"/><feColorMatrix in="SourceAlpha" values="0 0 0 0 0 0 0 0 0 0 0 0 0 0 0 0 0 0 127 0" result="hardAlpha"/><feOffset dx="-3" dy="-5"/><feComposite in2="hardAlpha" operator="arithmetic" k2="-1" k3="1"/><feColorMatrix values="0 0 0 0 0 0 0 0 0 0 0 0 0 0 0 0 0 0 0.25 0"/><feBlend in2="shape" result="effect1_innerShadow_52_9472"/></filter><filter id="filter1_i_52_9472" x="43.93" y="66.422" width="16.37" height="6.99" filterUnits="userSpaceOnUse" color-interpolation-filters="sRGB"><feFlood flood-opacity="0" result="BackgroundImageFix"/><feBlend in="SourceGraphic" in2="BackgroundImageFix" result="shape"/><feColorMatrix in="SourceAlpha" values="0 0 0 0 0 0 0 0 0 0 0 0 0 0 0 0 0 0 127 0" result="hardAlpha"/><feOffset dx="5" dy="-4"/><feComposite in2="hardAlpha" operator="arithmetic" k2="-1" k3="1"/><feColorMatrix values="0 0 0 0 0 0 0 0 0 0 0 0 0 0 0 0 0 0 0.25 0"/><feBlend in2="shape" result="effect1_innerShadow_52_9472"/></filter><filter id="filter2_i_52_9472" x="16" y="5.82" width="45.987" height="24.752" filterUnits="userSpaceOnUse" color-interpolation-filters="sRGB"><feFlood flood-opacity="0" result="BackgroundImageFix"/><feBlend in="SourceGraphic" in2="BackgroundImageFix" result="shape"/><feColorMatrix in="SourceAlpha" values="0 0 0 0 0 0 0 0 0 0 0 0 0 0 0 0 0 0 127 0" result="hardAlpha"/><feOffset dy="2"/><feComposite in2="hardAlpha" operator="arithmetic" k2="-1" k3="1"/><feColorMatrix values="0 0 0 0 0.410278 0 0 0 0 0.615385 0 0 0 0 0.389349 0 0 0 1 0"/><feBlend in2="shape" result="effect1_innerShadow_52_9472"/></filter><clipPath id="clip0_52_9472"><path fill="#fff" d="M0 0h78v74H0z"/></clipPath></defs></svg>
